src/status/22/clipman.svg

<svg viewBox="0 0 22 22" xmlns="http://www.w3.org/2000/svg">
 <path d="m8 1v3h6v-3zm-3 2c-0.554 0-1 0.446-1 1v15c0 0.554 0.446 1 1 1h12c0.554 0 1-0.446 1-1v-15c0-0.554-1-1-1-1h-1v15h-10v-15zm2 3v1h5v-1zm0 3v1h7v-1zm0 3v1h3v-1zm0 3v1h8v-1z" fill="#2e3440"/>
</svg>

<svg viewBox="0 0 22 22" xmlns="http://www.w3.org/2000/svg">
 <path style="fill:#2e3440;opacity:1;fill-opacity:1;stroke:none;fill-rule:nonzero" d="m 8,1 0,3 6,0 0,-3 z M 5,3 C 4.446,3 4,3.446 4,4 l 0,15 c 0,0.554 0.446,1 1,1 l 12,0 c 0.554,0 1,-0.446 1,-1 L 18,4 C 18,3.446 17,3 17,3 L 16,3 16,18 6,18 6,3 Z m 2,3 0,1 5,0 0,-1 z m 0,3 0,1 7,0 0,-1 z m 0,3 0,1 3,0 0,-1 z m 0,3 0,1 8,0 0,-1 z"/>
</svg>
